X:1
T:Father All Holy, 10.7.10.7 D
T:William James Kirkpatrick, 1890
T:Father All Holy, 10.7.10.7 D
T:Public Domain
C:William James Kirkpatrick, 1890
Z:Public Domain
%%score ( 1 2 ) ( 3 4 )
L:1/8
M:4/4
K:Eb
V:1 treble 
V:2 treble 
V:3 bass 
V:4 bass 
V:1
 [EB]2 [E=A][EB] [Ec]2 [EB]2 | [EG]2 [E^F][EG] [EA]2 [EG]2 | [DF]2 [EG][FA] [Ac]2 [GB][FA] | %3
 [EG]6 z2 | [EB]2 [E=A][EB] [Ec]2 [EB]2 | [EG]2 [E^F][EG] [EA]2 [EG]2 | %6
 [EF]2 [EA][Ec] [EB]2 [DG][DF] | E6 z2 | [DF]2 [^C=E][DF] [_EG]2 [DF]2 | %9
 [E=A]2 [EG][EF] [DF]2 [DB]2 | [EB]2 [Gc][Gd] [Ge]2 [F=A][EA] | (z2 DE F2) z2 | %12
 [EB]2 [E=A][EB] [Ge]2 [GB]2 | [Bd]2 [Ac][FA] [Ac]2 [GB]2 | E2 [CF][=EG] [FA]2 [B,D][B,D] | %15
 [B,E]2 |] %16
V:2
 x8 | x8 | x8 | x8 | x8 | x8 | x8 | E6 x2 | x8 | x8 | x8 | [DB]6 x2 | x8 | x8 | =E2 x6 | x2 |] %16
V:3
 [E,G,]2 [E,^F,][E,G,] [E,A,]2 [E,G,]2 | [E,B,]2 [E,=A,][E,B,] [E,C]2 [E,B,]2 | %2
 [B,,B,]2 [B,,B,][B,,B,] [B,,B,]2 [C,B,][D,B,] | [E,B,]6 z2 | %4
 [E,G,]2 [E,^F,][E,G,] [E,A,]2 [E,G,]2 | [E,B,]2 [E,=A,][E,B,] [E,C]2 [E,B,]2 | %6
 [A,,C]2 [A,,C][A,,A,] [B,,G,]2 [B,,B,][B,,A,] | [E,G,]6 z2 | %8
 [B,,B,]2 [B,,B,][B,,B,] [B,,B,]2 [B,,B,]2 | [F,C]2 [F,B,][F,=A,] [B,,B,]2 [B,,F,]2 | %10
 [E,G,]2 [E,G,][D,=B,] [C,C]2 [F,C][F,C] | (z2 F,G, A,2) z2 | %12
 [E,G,]2 [E,^F,][E,G,] [E,B,]2 [E,B,]2 | [B,,B,]2 [B,,D][B,,D] [E,E]2 [E,E]2 | %14
 [G,B,]2 A,[G,B,] [F,C]2 [B,,A,][B,,A,] | [E,G,]2 |] %16
V:4
 x8 | x8 | x8 | x8 | x8 | x8 | x8 | x8 | x8 | x8 | x8 | [B,,B,]6 x2 | x8 | x8 | x2 A, x5 | x2 |] %16

